X:429
T:Take if to the Valley
C:Lonesome River Band - Head Into Heartache
N:mandolin: Jeff Parker - Transcribed by Philippe Colleu
R:bluegrass
L:1/8
Q:1/4=200
M:4/4
K:C
"97bpm"z2 dc ^G=G F^C/z/ | "Bb"DF G2 ^G=G FG/z/ | Ac2A f2 ^d=d | "F"cf dc ^G/A/F DF | 
z^G/z/ Ac d2 ^d2 | "C7"eg ag ^d/e/c Ac | zd c^G/z/ AC F2 | "F"[^d/B/]c3/2 [d2c2] [d2c2] c_B | 
^G/A/F FF [G/F/]A/F ^DG, | "Bb"f^d cf2d c_b | z^g/z/ af ^dc fc | "F"[^dc]B/_B/ ^GF BF G/z/A | 
F6 "1"F^F/z/ | "C7"G_B G^F/z/ =FD/z/ Ec | z"2"c/z/ dc ^GA cd | "F"fd/z/ f2 [A2F2] [^GE][=G^D] | 
z8 | 


